public/avatar/item1/2.svg

<svg xmlns:xlink="http://www.w3.org/1999/xlink" height="65.4" width="80.15" xmlns="http://www.w3.org/2000/svg"><use height="15.65" transform="translate(14.3 31.8)" width="32.15" xlink:href="#a"/><defs><g id="a" fill-rule="evenodd"><path d="M.05 24.85q10.9 4.75 14.25 6.85.7.5.5 1.85-.05.4-4.65-.75Q4.8 31.45-1.3 29q-3.9-1.55-10.05-5.45l-5.65-3.7q-.4-.1-.3-.85.05-.75.45-1l1.65.25 15.25 6.6" fill="#020000" transform="translate(17.3 -18)"/><path d="m14.3 32.4.15.85-1.3-.2Q4.4 30.5-.8 28.2l-16.05-8.95.2-1L14.3 32.4" fill="#9f261a" transform="translate(17.3 -18)"/><path d="M13.55 33.2q-11.3-3.3-15-5-5.95-2.8-11.25-6.3l-4.15-2.95L-.8 27.2q9 3.25 9.75 3.25h1.2l3.9 1.9.25.65-.75.2" fill="#54100a" transform="translate(17.3 -18)"/><path d="m-7.35 24.25-2-.7-1.9-1.25.65-.55.65-.4 3.6 1.5-.65.7-.35.7" fill="#da3725" transform="translate(17.3 -18)"/></g></defs></svg>

<?xml version="1.0" encoding="UTF-8" standalone="no"?>
<svg xmlns:xlink="http://www.w3.org/1999/xlink" height="65.4px" width="80.15px" xmlns="http://www.w3.org/2000/svg">
  <g transform="matrix(1.0, 0.0, 0.0, 1.0, 31.6, 13.8)">
    <use height="15.65" transform="matrix(1.0, 0.0, 0.0, 1.0, -17.3, 18.0)" width="32.15" xlink:href="#shape0"/>
  </g>
  <defs>
    <g id="shape0" transform="matrix(1.0, 0.0, 0.0, 1.0, 17.3, -18.0)">
      <path d="M0.05 24.85 Q10.95 29.6 14.3 31.7 15.0 32.2 14.8 33.55 14.75 33.95 10.15 32.8 4.8 31.45 -1.3 29.0 -5.2 27.45 -11.35 23.55 L-17.0 19.85 Q-17.4 19.75 -17.3 19.0 -17.25 18.25 -16.85 18.0 L-15.2 18.25 0.05 24.85" fill="#020000" fill-rule="evenodd" stroke="none"/>
      <path d="M14.3 32.4 L14.45 33.25 13.15 33.05 Q4.4 30.5 -0.8 28.2 L-16.85 19.25 -16.65 18.25 14.3 32.4" fill="#9f261a" fill-rule="evenodd" stroke="none"/>
      <path d="M13.55 33.2 Q2.25 29.9 -1.45 28.2 -7.4 25.4 -12.7 21.9 L-16.85 18.95 -0.8 27.2 Q8.2 30.45 8.95 30.45 L10.15 30.45 14.05 32.35 14.3 33.0 13.55 33.2" fill="#54100a" fill-rule="evenodd" stroke="none"/>
      <path d="M-7.35 24.25 L-9.35 23.55 -11.25 22.3 -10.6 21.75 -9.95 21.35 -6.35 22.85 -7.0 23.55 -7.35 24.25" fill="#da3725" fill-rule="evenodd" stroke="none"/>
    </g>
  </defs>
</svg>
